assets/images/chicons/bean.svg

<svg width="102" height="65" viewBox="0 0 102 65" fill="none" xmlns="http://www.w3.org/2000/svg">
<g filter="url(#filter0_d)">
<g filter="url(#filter1_d)">
<path d="M11.0009 38.1169C11.0615 31.8457 16.8832 4 51 4C85.1168 4 90.9386 31.8457 90.9992 38.1169C90.9995 38.1552 90.9997 38.1744 90.6888 39.5294C89.2365 45.8578 81.4688 50.1461 75.3397 48.0032C74.0274 47.5444 71.9901 46.234 67.9155 43.6131C63.0334 40.4729 57.2785 38.1169 51 38.1169C44.7216 38.1169 38.9667 40.4729 34.0845 43.6131C30.01 46.234 27.9727 47.5444 26.6603 48.0032C20.5312 50.1461 12.7636 45.8578 11.3113 39.5293C11.0003 38.1744 11.0005 38.1552 11.0009 38.1169Z" fill="#B4BFCE"/>
</g>
<mask id="mask0" mask-type="alpha" maskUnits="userSpaceOnUse" x="10" y="4" width="82" height="47">
<path d="M11.0008 38.1169C11.0614 31.8457 16.8831 4 50.9999 4C85.1167 4 90.9385 31.8457 90.9991 38.1169C91.0328 41.6035 91.0497 43.3468 90.2155 45.2189C88.4266 49.2335 83.5916 51.5865 79.3285 50.517C77.3406 50.0182 74.298 47.5846 68.2128 42.7175C63.2677 38.7621 57.4064 35.764 50.9999 35.764C44.5935 35.764 38.7322 38.7621 33.7871 42.7175C27.7019 47.5846 24.6593 50.0182 22.6714 50.517C18.4083 51.5865 13.5733 49.2335 11.7844 45.2189C10.9503 43.3468 10.9671 41.6035 11.0008 38.1169Z" fill="#D0D0D0"/>
</mask>
<g mask="url(#mask0)">
</g>
<mask id="mask1" mask-type="alpha" maskUnits="userSpaceOnUse" x="10" y="4" width="82" height="47">
<path opacity="0.5" d="M11.0008 38.1169C11.0614 31.8457 16.8831 4 50.9999 4C85.1167 4 90.9385 31.8457 90.9991 38.1169C91.0328 41.6035 91.0497 43.3468 90.2155 45.2189C88.4266 49.2335 83.5916 51.5865 79.3285 50.517C77.3406 50.0182 74.298 47.5846 68.2128 42.7175C63.2677 38.7621 57.4064 35.764 50.9999 35.764C44.5935 35.764 38.7322 38.7621 33.7871 42.7175C27.7019 47.5846 24.6593 50.0182 22.6714 50.517C18.4083 51.5865 13.5733 49.2335 11.7844 45.2189C10.9503 43.3468 10.9671 41.6035 11.0008 38.1169Z" fill="white"/>
</mask>
<g mask="url(#mask1)">
<path opacity="0.5" d="M3.43916 28.7053C3.51048 21.2822 3.43915 -11.678 50.496 -11.678C97.5528 -11.678 97.4815 21.2822 97.5528 28.7053C97.6217 35.8796 97.6562 39.4668 95.4502 42.1213C93.7787 44.1326 91.0747 45.4451 88.4604 45.5142C85.0102 45.6053 80.2408 41.7754 70.7021 34.1156C64.8936 29.4512 58.0138 25.9203 50.496 25.9203C42.9781 25.9203 36.0983 29.4512 30.2898 34.1156C20.7512 41.7754 15.9818 45.6053 12.5316 45.5142C9.91724 45.4451 7.21326 44.1326 5.54175 42.1213C3.33577 39.4668 3.37024 35.8796 3.43916 28.7053Z" fill="white"/>
</g>
<path fill-rule="evenodd" clip-rule="evenodd" d="M69.6072 18.7212C66.1132 16.485 62.3241 15.1761 59.2352 15.176C58.2606 15.176 57.4705 14.386 57.4705 13.4114C57.4705 12.4368 58.2606 11.6467 59.2352 11.6467C63.2047 11.6467 67.6508 13.2789 71.5097 15.7485C75.3785 18.2245 78.8707 21.6782 80.8132 25.5631C81.249 26.4348 80.8957 27.4948 80.024 27.9306C79.1523 28.3665 78.0923 28.0132 77.6564 27.1415C76.0696 23.9677 73.0912 20.951 69.6072 18.7212Z" fill="white"/>
</g>
<defs>
<filter id="filter0_d" x="0.989105" y="0" width="100.022" height="77.6458" filterUnits="userSpaceOnUse" color-interpolation-filters="sRGB">
<feFlood flood-opacity="0" result="BackgroundImageFix"/>
<feColorMatrix in="SourceAlpha" type="matrix" values="0 0 0 0 0 0 0 0 0 0 0 0 0 0 0 0 0 0 127 0"/>
<feOffset dy="6"/>
<feGaussianBlur stdDeviation="5"/>
<feColorMatrix type="matrix" values="0 0 0 0 0 0 0 0 0 0 0 0 0 0 0 0 0 0 0.1 0"/>
<feBlend mode="normal" in2="BackgroundImageFix" result="effect1_dropShadow"/>
<feBlend mode="normal" in="SourceGraphic" in2="effect1_dropShadow" result="shape"/>
</filter>
<filter id="filter1_d" x="11.0009" y="4" width="79.9983" height="46.561" filterUnits="userSpaceOnUse" color-interpolation-filters="sRGB">
<feFlood flood-opacity="0" result="BackgroundImageFix"/>
<feColorMatrix in="SourceAlpha" type="matrix" values="0 0 0 0 0 0 0 0 0 0 0 0 0 0 0 0 0 0 127 0"/>
<feOffset dy="2"/>
<feColorMatrix type="matrix" values="0 0 0 0 0.100625 0 0 0 0 0.165375 0 0 0 0 0.2625 0 0 0 0.5 0"/>
<feBlend mode="normal" in2="BackgroundImageFix" result="effect1_dropShadow"/>
<feBlend mode="normal" in="SourceGraphic" in2="effect1_dropShadow" result="shape"/>
</filter>
</defs>
</svg>

<svg width="102" height="65" fill="none" xmlns="http://www.w3.org/2000/svg"><g filter="url(#filter0_d)"><path d="M11 38.117C11.063 31.846 16.884 4 51 4s39.939 27.846 40 34.117c0 .038 0 .057-.311 1.412-1.452 6.329-9.22 10.617-15.35 8.474-1.312-.459-3.349-1.769-7.424-4.39-4.882-3.14-10.637-5.496-16.915-5.496-6.278 0-12.033 2.356-16.916 5.496-4.074 2.621-6.111 3.931-7.424 4.39-6.129 2.143-13.896-2.145-15.349-8.474-.31-1.355-.31-1.374-.31-1.412z" fill="#B4BFCE" filter="url(#filter1_d)"/><mask id="a" maskUnits="userSpaceOnUse" x="10" y="4" width="82" height="47"><path d="M11 38.117C11.062 31.846 16.884 4 51 4s39.939 27.846 40 34.117c.033 3.486.05 5.23-.784 7.102-1.79 4.014-6.624 6.367-10.887 5.298-1.988-.499-5.031-2.932-11.116-7.8-4.945-3.955-10.807-6.953-17.213-6.953-6.407 0-12.268 2.998-17.213 6.953-6.085 4.868-9.128 7.301-11.116 7.8-4.263 1.07-9.098-1.284-10.887-5.298-.834-1.872-.817-3.616-.783-7.102z" fill="#D0D0D0"/></mask><mask id="b" maskUnits="userSpaceOnUse" x="10" y="4" width="82" height="47"><path opacity=".5" d="M11 38.117C11.062 31.846 16.884 4 51 4s39.939 27.846 40 34.117c.033 3.486.05 5.23-.784 7.102-1.79 4.014-6.624 6.367-10.887 5.298-1.988-.499-5.031-2.932-11.116-7.8-4.945-3.955-10.807-6.953-17.213-6.953-6.407 0-12.268 2.998-17.213 6.953-6.085 4.868-9.128 7.301-11.116 7.8-4.263 1.07-9.098-1.284-10.887-5.298-.834-1.872-.817-3.616-.783-7.102z" fill="#fff"/></mask><g mask="url(#b)"><path opacity=".5" d="M3.44 28.705c.07-7.423 0-40.383 47.056-40.383 47.057 0 46.985 32.96 47.057 40.383.069 7.175.103 10.762-2.103 13.416-1.671 2.012-4.375 3.324-6.99 3.393-3.45.091-8.22-3.739-17.758-11.398-5.808-4.665-12.688-8.196-20.206-8.196-7.518 0-14.398 3.531-20.206 8.196-9.539 7.66-14.308 11.49-17.758 11.398-2.615-.069-5.319-1.381-6.99-3.393-2.206-2.654-2.172-6.241-2.103-13.416z" fill="#fff"/></g><path fill-rule="evenodd" clip-rule="evenodd" d="M69.607 18.721c-3.494-2.236-7.283-3.545-10.372-3.545a1.765 1.765 0 1 1 0-3.53c3.97 0 8.416 1.633 12.275 4.102 3.868 2.476 7.36 5.93 9.303 9.815a1.765 1.765 0 0 1-3.157 1.579c-1.586-3.174-4.565-6.191-8.049-8.42z" fill="#fff"/></g><defs><filter id="filter0_d" x=".989" y="0" width="100.022" height="77.646" filterUnits="userSpaceOnUse" color-interpolation-filters="sRGB"><feFlood flood-opacity="0" result="BackgroundImageFix"/><feColorMatrix in="SourceAlpha" values="0 0 0 0 0 0 0 0 0 0 0 0 0 0 0 0 0 0 127 0"/><feOffset dy="6"/><feGaussianBlur stdDeviation="5"/><feColorMatrix values="0 0 0 0 0 0 0 0 0 0 0 0 0 0 0 0 0 0 0.1 0"/><feBlend in2="BackgroundImageFix" result="effect1_dropShadow"/><feBlend in="SourceGraphic" in2="effect1_dropShadow" result="shape"/></filter><filter id="filter1_d" x="11.001" y="4" width="79.998" height="46.561" filterUnits="userSpaceOnUse" color-interpolation-filters="sRGB"><feFlood flood-opacity="0" result="BackgroundImageFix"/><feColorMatrix in="SourceAlpha" values="0 0 0 0 0 0 0 0 0 0 0 0 0 0 0 0 0 0 127 0"/><feOffset dy="2"/><feColorMatrix values="0 0 0 0 0.100625 0 0 0 0 0.165375 0 0 0 0 0.2625 0 0 0 0.5 0"/><feBlend in2="BackgroundImageFix" result="effect1_dropShadow"/><feBlend in="SourceGraphic" in2="effect1_dropShadow" result="shape"/></filter></defs></svg>
